papirus/16x16/apps/kfloppy.svg

<?xml version="1.0" encoding="UTF-8" standalone="no"?>
<!-- Created with Inkscape (http://www.inkscape.org/) -->

<svg
   xmlns:dc="http://purl.org/dc/elements/1.1/"
   xmlns:cc="http://creativecommons.org/ns#"
   xmlns:rdf="http://www.w3.org/1999/02/22-rdf-syntax-ns#"
   xmlns:svg="http://www.w3.org/2000/svg"
   xmlns="http://www.w3.org/2000/svg"
   xmlns:sodipodi="http://sodipodi.sourceforge.net/DTD/sodipodi-0.dtd"
   xmlns:inkscape="http://www.inkscape.org/namespaces/inkscape"
   id="svg2817"
   height="16"
   width="16"
   version="1.0"
   inkscape:version="0.91 r13725"
   sodipodi:docname="kfloppy.svg">
  <defs
     id="defs13" />
  <sodipodi:namedview
     pagecolor="#ffffff"
     bordercolor="#666666"
     borderopacity="1"
     objecttolerance="10"
     gridtolerance="10"
     guidetolerance="10"
     inkscape:pageopacity="0"
     inkscape:pageshadow="2"
     inkscape:window-width="1600"
     inkscape:window-height="847"
     id="namedview11"
     showgrid="false"
     inkscape:zoom="19.46"
     inkscape:cx="7.6881382"
     inkscape:cy="7.7780062"
     inkscape:window-x="0"
     inkscape:window-y="0"
     inkscape:window-maximized="1"
     inkscape:current-layer="svg2817" />
  <metadata
     id="metadata57">
    <rdf:RDF>
      <cc:Work
         rdf:about="">
        <dc:format>image/svg+xml</dc:format>
        <dc:type
           rdf:resource="http://purl.org/dc/dcmitype/StillImage" />
        <dc:title></dc:title>
      </cc:Work>
    </rdf:RDF>
  </metadata>
  <rect
     style="fill:#858a89"
     id="rect4203"
     ry="0.79999995"
     rx="0.79999995"
     transform="matrix(0,-1,-1,0,0,0)"
     height="16"
     width="16"
     y="-16"
     x="-16" />
  <path
     style="fill:#d4d4d4"
     d="M 4.1152344 0 C 4.0439844 0.11801985 4 0.2536307 4 0.40039062 L 4 5.1992188 C 4 5.6426185 4.3721094 6 4.8339844 6 L 13.166016 6 C 13.627891 6 14 5.6426184 14 5.1992188 L 14 0.40039062 C 14 0.2536307 13.956015 0.11801985 13.884766 0 L 4.1152344 0 z M 10.429688 1 L 12.570312 1 C 12.807898 1 13 1.19716 13 1.4433594 L 13 4.5566406 C 13 4.8026407 12.807898 5 12.570312 5 L 10.429688 5 C 10.192102 5 10 4.8026407 10 4.5566406 L 10 1.4433594 C 10 1.19716 10.192103 1 10.429688 1 z "
     id="path4163" />
  <rect
     style="fill:#ffffff"
     id="rect4186-0"
     rx="0.75"
     ry="0.77775836"
     height="7"
     width="12"
     y="8"
     x="2" />
  <path
     style="fill:#ffae3f"
     inkscape:connector-curvature="0"
     id="rect4155"
     d="m 14,13.0002 0,1.111133 C 14,14.603333 13.6652,15 13.250001,15 L 2.75,15 C 2.3345,15 2,14.603333 2,14.111333 L 2,13 Z" />
</svg>

<?xml version="1.0" encoding="UTF-8" standalone="no"?>
<svg id="svg2817" xmlns:rdf="http://www.w3.org/1999/02/22-rdf-syntax-ns#" xmlns="http://www.w3.org/2000/svg" height="16" width="16" version="1.0" xmlns:cc="http://creativecommons.org/ns#" xmlns:dc="http://purl.org/dc/elements/1.1/">
 <metadata id="metadata57">
  <rdf:RDF>
   <cc:Work rdf:about="">
    <dc:format>image/svg+xml</dc:format>
    <dc:type rdf:resource="http://purl.org/dc/dcmitype/StillImage"/>
    <dc:title/>
   </cc:Work>
  </rdf:RDF>
 </metadata>
 <rect id="rect4203" ry="0.8" rx="0.8" transform="matrix(0,-1,-1,0,0,0)" height="16" width="16" y="-16" x="-16" fill="#858a89"/>
 <path id="path4163" fill="#d4d4d4" d="m4.1152 0c-0.0712 0.11802-0.1152 0.25363-0.1152 0.40039v4.7988c0 0.4434 0.3721 0.8008 0.834 0.8008h8.332c0.462 0 0.834-0.3574 0.834-0.8008v-4.7988c0-0.14677-0.044-0.28238-0.115-0.4004h-9.7698zm6.3148 1h2.14c0.238 0 0.43 0.1972 0.43 0.4434v3.1132c0 0.246-0.192 0.4434-0.43 0.4434h-2.14c-0.238 0-0.43-0.1974-0.43-0.4434v-3.1132c0-0.2462 0.192-0.4434 0.43-0.4434z"/>
 <rect id="rect4186-0" rx=".75" ry=".77776" height="7" width="12" y="8" x="2" fill="#fff"/>
 <path id="rect4155" fill="#ffae3f" d="m14 13v1.1111c0 0.492-0.335 0.889-0.75 0.889h-10.5c-0.4155 0-0.75-0.397-0.75-0.889v-1.111z"/>
</svg>
